X:33
%
T:The Baffled Knight
S:Colin Hume's website,  colinhume.com  - chords can also be printed below the stave.
Q:3/8=112
M:6/8
L:1/8
R:Air
C:Chappell: Popular Music of the Olden Times, 1859
K:G
P:A
|:G | "G"G2d d>ed | "/"B2A G2f | "Em"g2f e>fg | "D"f3 "C"e2f |\
"G"g>fe d>cB | "Am"e2A A>Bc | "G"d>cB "D7"G2F | "G"G3- G2 :|
P:B
|: d | "G"B3- B2d | "D/F#"A3- A2e/f/ | "Em"g2G B2G | "D"A3- A2f |\
"G"g2a b>ag | "Am"c'2e "D"d2e/f/ | "Em"g2B "D7"A2G | "G"G3-G2 :|

